!!!OTL: Lef Gefuodesch, S. 32f
!!!id: L0025
**kern
*clefG2
*k[f#]
*G:
{8dd
8cc
=1
4b
4g
8b
8cc
=2
4dd
4dd
8g
8b
=3
4a
8a
8f#
8g
8e
=4
4d}
4r
=5
{8dd
8cc
=6
4b
4g
8b
8cc
=7
4ff#
4ff#
8g
8b
=8
4a
8a
8f#
8g
8e
=9
4d}
4r
=10
{8f#
8g
=11
4a
4a
8b
8g
=12
4a
4a
8b
8cc
=13
4dd
4dd
8cc
8b
=14
4a}
4r
=15
{8b
8g
=16
4dd
4dd
8b
8g
=17
4dd
4dd
8g
8a
=18
4b
4b
8a
8f#
=19
2g}
==
*-
!!!minrhy: 8
!!!meters: 3/4 ]  ZZ[4
!!!cut: Lef Gefuodesch, S. 32f
!!!reg: Luxemburg
!!!trd: Die Luxemburger Volkslieder &auml;lterer Zeit, Luxemburg 1904 posth.
!!!rhy1: XX  X_X_XX  X_X_XX  X_XXXX  X_0_
!!!rhy2: XX  X_X_XX  X_X_XX  X_XXXX  X_0_
!!!key: L0025  08  G 3/4 ]  ZZ[4
!!!mod: HEPTATONIK IONISCH]  AMBITUS[10
!!!kad: -5-521
!!!akz: 352-5_372-5_2252_5531_
!!!fot: 'a__aw_b__c__
!!!for: 'a__a__b__bv_
!!!fok: 'Sd_Sd_^a_Md_
!! PHRAS[AUFTAKTIG]
!!!fkt: ??
!! FONTAINE, Ed.:
!! PR[5] 2K[9] 2G[16] 3K[7] 3G[7] 4A[4] 4Ü[0] 5A[0] 6K[0] 6G[0]
!! 7K[0] 7G[0] 8A[0] MEHR[0] SI[44] ABS[55] SR[25] SP[18]
!! ST[16] 2k[15] 2g[29] 3k[2] 3g[4] 4d[2] 4ü[0] 5d[0] 6k[0] 6g[0]
!! 7k[0] 7g[0] 8d[0] mehr[0] si[51] dm[-7] sr[44] sp[7]
!! 1F[21] 2F[59] 3F[18] 4F[0] LF[0] 2P[2] 3P[0] 4P[0] TRI[0] DF[4] AB[61]
!! TF[0] U3K[0] U3[0] U4[0] U4Ü[0] U5[4] U6K[0] U6[0] U7K[0] U7[11]
!! N1[25] N2K[0] N2[21] N3K[0] N3[20] N4[11] N4Ü[0] N5[7] N6K[0] N6[2]
!!!n7k: 0] N7[0] O1[0] O2K[0] O2[0] O3K[0] O3[0] HÖ[0
!!!RNB: symbol: &auml;      = a umlaut  (UTF-8: Å„)
